svg/US/KY.svg

<?xml version="1.0" encoding="UTF-8" standalone="no"?>
<svg width="90px" height="65px" viewBox="0 0 90 65" version="1.1" xmlns="http://www.w3.org/2000/svg" xmlns:xlink="http://www.w3.org/1999/xlink">
    <!-- Generator: Sketch 3.7.2 (28276) - http://www.bohemiancoding.com/sketch -->
    <title>Kentucky</title>
    <desc>Created with Sketch.</desc>
    <defs></defs>
    <g id="Page-1" stroke="none" stroke-width="1" fill="none" fill-rule="evenodd">
        <g id="Kentucky">
            <g id="Page-1">
                <path d="M80,65 L10,65 C4.477,65 0,60.523 0,55 L0,10 C0,4.477 4.477,0 10,0 L80,0 C85.523,0 90,4.477 90,10 L90,55 C90,60.523 85.523,65 80,65" id="Fill-1" fill="#00247D"></path>
                <path d="M58,32.5 C58,25.32 52.18,19.5 45,19.5 C37.82,19.5 32,25.32 32,32.5 C32,39.68 37.82,45.5 45,45.5 C52.18,45.5 58,39.68 58,32.5" id="Fill-3" fill="#F1F2F2"></path>
                <path d="M45,20 C38.107,20 32.5,25.607 32.5,32.5 C32.5,39.393 38.107,45 45,45 C51.893,45 57.5,39.393 57.5,32.5 C57.5,25.607 51.893,20 45,20 M45,46 C37.556,46 31.5,39.944 31.5,32.5 C31.5,25.056 37.556,19 45,19 C52.444,19 58.5,25.056 58.5,32.5 C58.5,39.944 52.444,46 45,46" id="Fill-5" fill="#FFB200"></path>
                <path d="M66.5,33 C66.281,32.554 65.847,31.363 65.375,31.583 C65.161,31.873 65.025,32.066 65,33 L63.5,33 C63.472,32.044 63.337,31.886 63.125,31.585 C62.656,31.361 62.215,32.546 62,33 C60.955,30.083 64.857,29.068 65,33 L63.5,33 C63.642,29.292 67.358,29.785 66.5,33" id="Fill-7" fill="#FFB200"></path>
                <path d="M67.0714,36.8995 C66.5494,34.7265 65.1014,34.7095 64.6094,36.4655 L63.1324,36.2045 C63.2584,34.3695 61.8554,33.9435 60.6704,35.7705 C60.4824,32.6795 64.9704,32.5805 64.6094,36.4655 L63.1324,36.2045 C64.1184,32.5065 68.2874,33.9635 67.0714,36.8995" id="Fill-9" fill="#FFB200"></path>
                <path d="M65.9721,40.6653 C65.8341,38.4243 64.4051,38.1813 63.6231,39.8103 L62.2131,39.2973 C62.6501,37.5363 61.3701,36.8263 59.8641,38.4423 C60.2191,35.3313 64.6441,36.0813 63.6231,39.8103 L62.2141,39.2973 C63.8371,35.8033 67.6581,38.0193 65.9721,40.6653" id="Fill-11" fill="#FFB200"></path>
                <path d="M64.2356,44.183 C64.4926,41.921 63.1096,41.485 62.0706,42.933 L60.7716,42.183 C61.5076,40.524 60.3706,39.603 58.6066,40.933 C59.4936,37.942 63.7256,39.434 62.0706,42.933 L60.7716,42.183 C62.9426,39.074 66.3866,41.835 64.2356,44.183" id="Fill-13" fill="#FFB200"></path>
                <path d="M61.3724,46.8907 C61.5074,46.3697 61.8584,45.4097 61.4194,45.0657 C61.3954,45.0177 61.3334,45.0187 61.3094,44.9887 C61.2564,44.9917 61.2364,44.9607 61.1844,44.9747 C60.7564,44.9247 60.2934,45.4487 59.9994,45.7387 L58.8504,44.7747 C59.0774,44.4407 59.5264,43.8657 59.3944,43.4767 C59.4004,43.4227 59.3664,43.4087 59.3604,43.3557 C59.3264,43.3377 59.3174,43.2767 59.2664,43.2607 C58.8574,42.8847 57.9544,43.3977 57.4774,43.6227 C58.7904,40.8007 62.2454,42.5227 59.9994,45.7387 L58.8504,44.7747 C61.6214,42.0367 63.9304,45.0377 61.3724,46.8907" id="Fill-15" fill="#78AD12"></path>
                <path d="M58.6643,49.5624 C58.8373,49.1854 59.3323,48.2964 59.0953,47.9174 C59.0753,47.8514 59.0483,47.7984 59.0143,47.7574 C58.9973,47.7034 58.9333,47.6914 58.9133,47.6544 C58.8573,47.6464 58.8413,47.6084 58.7843,47.6124 C58.7443,47.6004 58.7013,47.5894 58.6463,47.5944 C58.3373,47.4914 57.7153,47.9754 57.4723,48.1424 L56.5083,46.9934 C56.7193,46.7764 57.2923,46.2464 57.2503,45.9324 C57.2643,45.8804 57.2623,45.8354 57.2563,45.7944 C57.2703,45.7394 57.2353,45.7174 57.2373,45.6614 C57.2043,45.6344 57.2043,45.5694 57.1543,45.5444 C56.7983,45.1074 55.8583,45.4244 55.3173,45.5734 C57.1243,43.0034 60.2033,45.4064 57.4723,48.1424 L56.5083,46.9934 C59.6683,44.8074 61.5093,48.1694 58.6643,49.5624" id="Fill-17" fill="#008542"></path>
                <path d="M55.817,52.2356 C57.046,50.5746 56.353,49.2636 54.567,50.0706 L53.817,48.7716 C55.284,47.7026 54.76,46.3366 52.567,46.6066 C54.873,44.4196 57.74,47.8746 54.567,50.0706 L53.817,48.7716 C57.288,47.1476 58.831,51.2856 55.817,52.2356" id="Fill-19" fill="#008542"></path>
                <path d="M52.2256,53.8141 C54.0146,52.1161 53.0066,51.0471 51.3706,51.4651 L50.8576,50.0551 C52.4666,49.2681 52.2286,47.8221 50.0026,47.7061 C52.6336,45.9661 54.8776,49.8521 51.3706,51.4651 L50.8576,50.0551 C54.5906,49.0501 55.3406,53.4041 52.2256,53.8141" id="Fill-21" fill="#008542"></path>
                <path d="M48.2437,53.7751 C48.6677,53.4651 49.7297,52.8551 49.4427,52.4141 C49.1407,52.2531 48.9117,52.1441 47.9807,52.2831 L47.7207,50.8061 C48.6447,50.6141 48.8007,50.4461 49.0467,50.1831 C49.1677,49.6791 47.9567,49.4511 47.4567,49.3131 C50.1547,47.7761 51.8207,51.4611 47.9807,52.2831 L47.7207,50.8061 C51.3647,50.3061 51.5757,54.0611 48.2437,53.7751" id="Fill-23" fill="#008542"></path>
                <path d="M23.5,33 C23.719,32.554 24.153,31.363 24.625,31.583 C24.839,31.873 24.975,32.066 25,33 L26.5,33 C26.528,32.044 26.663,31.886 26.875,31.585 C27.344,31.361 27.785,32.546 28,33 C29.045,30.083 25.143,29.068 25,33 L26.5,33 C26.358,29.292 22.642,29.785 23.5,33" id="Fill-25" fill="#FFB200"></path>
                <path d="M22.9286,36.8995 C23.4506,34.7265 24.8986,34.7095 25.3906,36.4655 L26.8676,36.2045 C26.7416,34.3695 28.1446,33.9435 29.3296,35.7705 C29.5176,32.6795 25.0296,32.5805 25.3906,36.4655 L26.8676,36.2045 C25.8816,32.5065 21.7126,33.9635 22.9286,36.8995" id="Fill-27" fill="#FFB200"></path>
                <path d="M24.0279,40.6653 C24.1659,38.4243 25.5949,38.1813 26.3769,39.8103 L27.7869,39.2973 C27.3499,37.5363 28.6299,36.8263 30.1359,38.4423 C29.7809,35.3313 25.3559,36.0813 26.3769,39.8103 L27.7869,39.2973 C26.1629,35.8033 22.3419,38.0193 24.0279,40.6653" id="Fill-29" fill="#FFB200"></path>
                <path d="M25.7644,44.183 C25.5074,41.921 26.8904,41.485 27.9294,42.933 L29.2284,42.183 C28.4924,40.524 29.6294,39.603 31.3934,40.933 C30.5064,37.942 26.2744,39.434 27.9294,42.933 L29.2284,42.183 C27.0574,39.074 23.6134,41.835 25.7644,44.183" id="Fill-31" fill="#FFB200"></path>
                <path d="M28.6276,46.8907 C28.4926,46.3697 28.1416,45.4097 28.5806,45.0657 C28.6046,45.0177 28.6666,45.0187 28.6906,44.9887 C28.7436,44.9917 28.7636,44.9607 28.8156,44.9747 C29.2436,44.9247 29.7066,45.4487 30.0006,45.7387 L31.1496,44.7747 C30.9226,44.4407 30.4736,43.8657 30.6056,43.4767 C30.5996,43.4227 30.6336,43.4087 30.6396,43.3557 C30.6736,43.3377 30.6826,43.2767 30.7336,43.2607 C31.1426,42.8847 32.0456,43.3977 32.5226,43.6227 C31.2096,40.8007 27.7546,42.5227 30.0006,45.7387 L31.1496,44.7747 C28.3786,42.0367 26.0696,45.0377 28.6276,46.8907" id="Fill-33" fill="#78AD12"></path>
                <path d="M31.3357,49.5624 C31.1627,49.1854 30.6677,48.2964 30.9047,47.9174 C30.9247,47.8514 30.9517,47.7984 30.9857,47.7574 C31.0027,47.7034 31.0667,47.6914 31.0867,47.6544 C31.1427,47.6464 31.1587,47.6084 31.2157,47.6124 C31.2557,47.6004 31.2987,47.5894 31.3537,47.5944 C31.6627,47.4914 32.2847,47.9754 32.5277,48.1424 L33.4917,46.9934 C33.2807,46.7764 32.7077,46.2464 32.7497,45.9324 C32.7357,45.8804 32.7377,45.8354 32.7437,45.7944 C32.7297,45.7394 32.7647,45.7174 32.7627,45.6614 C32.7957,45.6344 32.7957,45.5694 32.8457,45.5444 C33.2017,45.1074 34.1417,45.4244 34.6827,45.5734 C32.8757,43.0034 29.7967,45.4064 32.5277,48.1424 L33.4917,46.9934 C30.3317,44.8074 28.4907,48.1694 31.3357,49.5624" id="Fill-35" fill="#008542"></path>
                <path d="M34.183,52.2356 C32.954,50.5746 33.647,49.2636 35.433,50.0706 L36.183,48.7716 C34.716,47.7026 35.24,46.3366 37.433,46.6066 C35.127,44.4196 32.26,47.8746 35.433,50.0706 L36.183,48.7716 C32.712,47.1476 31.169,51.2856 34.183,52.2356" id="Fill-37" fill="#008542"></path>
                <path d="M37.7744,53.8141 C35.9854,52.1161 36.9934,51.0471 38.6294,51.4651 L39.1424,50.0551 C37.5334,49.2681 37.7714,47.8221 39.9974,47.7061 C37.3664,45.9661 35.1224,49.8521 38.6294,51.4651 L39.1424,50.0551 C35.4094,49.0501 34.6594,53.4041 37.7744,53.8141" id="Fill-39" fill="#008542"></path>
                <path d="M41.7563,53.7751 C41.3323,53.4651 40.2703,52.8551 40.5573,52.4141 C40.8593,52.2531 41.0883,52.1441 42.0193,52.2831 L42.2793,50.8061 C41.3553,50.6141 41.1993,50.4461 40.9533,50.1831 C40.8323,49.6791 42.0433,49.4511 42.5433,49.3131 C39.8453,47.7761 38.1793,51.4611 42.0193,52.2831 L42.2793,50.8061 C38.6353,50.3061 38.4243,54.0611 41.7563,53.7751" id="Fill-41" fill="#008542"></path>
                <path d="M47.7202,50.806 C45.9282,51.199 44.0722,51.199 42.2802,50.806 L42.0192,52.283 C43.9872,52.678 46.0132,52.678 47.9802,52.283 L47.7202,50.806 Z" id="Fill-43" fill="#008542"></path>
                <path d="M43.2774,38.9624 C43.2774,38.9624 44.2054,39.2554 44.6384,39.8424 C44.2374,40.1474 43.0064,39.9904 41.7924,39.8424 L41.7924,38.9624 L43.2774,38.9624 Z" id="Fill-45" fill="#49361F"></path>
                <path d="M43.3642,30.9429 C43.3642,30.9429 44.1192,33.8109 44.4092,34.8019 C44.7002,35.7919 43.1312,39.6729 43.1312,39.6729 L42.1732,39.2339 L43.3642,30.9429 Z" id="Fill-47" fill="#49361F"></path>
                <path d="M46.1792,27.4004 L48.2702,27.4004 L48.2702,29.7444 C48.2702,30.4454 48.2352,31.0604 48.3922,31.7434 C48.5312,32.3524 48.7112,32.9864 48.6212,33.6174 C48.5552,34.0834 48.0972,39.9444 48.2702,39.9444 L46.8762,39.9444 C46.8182,39.9444 46.2702,32.9654 46.2952,32.4234 C46.3432,31.3904 46.0182,30.3684 46.0812,29.3404 C46.1212,28.6994 46.1792,28.0564 46.1792,27.4004" id="Fill-49" fill="#231F1F"></path>
                <path d="M46.7226,38.9624 C46.7226,38.9624 45.7946,39.2554 45.3616,39.8424 C45.7626,40.1474 46.9936,39.9904 48.2076,39.8424 L48.2076,38.9624 L46.7226,38.9624 Z" id="Fill-51" fill="#231F1F"></path>
                <path d="M46.8683,39.673 C46.8683,39.673 45.9973,40.197 45.5903,40.886 C46.3803,41.244 47.2863,40.911 48.2623,40.171 L48.2623,39.3 L46.8683,39.673 Z" id="Fill-53" fill="#231F1F"></path>
                <path d="M43.8208,27.4004 L41.7298,27.4004 L41.7298,29.7444 C41.7298,30.4454 41.7648,31.0604 41.6078,31.7434 C41.4688,32.3524 41.2888,32.9864 41.3788,33.6174 C41.4448,34.0834 41.9028,39.9444 41.7298,39.9444 L43.1238,39.9444 C43.1818,39.9444 43.7298,32.9654 43.7048,32.4234 C43.6568,31.3904 43.9818,30.3684 43.9188,29.3404 C43.8788,28.6994 43.8208,28.0564 43.8208,27.4004" id="Fill-55" fill="#594529"></path>
                <path d="M43.1317,39.673 C43.1317,39.673 44.0027,40.197 44.4097,40.886 C43.6197,41.244 42.7137,40.911 41.7377,40.171 L41.7377,39.3 L43.1317,39.673 Z" id="Fill-57" fill="#594529"></path>
                <path d="M41.9175,26.6813 L41.9505,26.3283 C40.9815,25.8433 42.0495,23.7053 43.0185,24.1903 C43.4405,24.3923 43.7365,24.6523 43.7025,25.0663 C43.6945,25.1723 43.7285,25.2773 43.8085,25.3473 L43.9825,25.5003 C44.0485,25.5583 44.0195,25.6673 43.9325,25.6843 L43.7605,25.7183 L43.7015,25.9463 L43.7985,26.3283 L43.4235,26.3573 L43.5025,26.5313 L42.8055,27.4003 L41.9175,26.6813 Z" id="Fill-59" fill="#FFE1C7"></path>
                <path d="M48.0017,26.6813 L47.9687,26.3283 C48.9377,25.8433 47.8697,23.7053 46.9007,24.1903 C46.4787,24.3923 46.1827,24.6523 46.2167,25.0663 C46.2247,25.1723 46.1907,25.2773 46.1107,25.3473 L45.9367,25.5003 C45.8707,25.5583 45.8997,25.6673 45.9867,25.6843 L46.1587,25.7183 L46.2177,25.9463 L46.1207,26.3283 L46.4957,26.3573 L46.4167,26.5313 L47.1137,27.4003 L48.0017,26.6813 Z" id="Fill-61" fill="#FFE1C7"></path>
                <path d="M43.9675,27.8611 L43.8395,30.8601 L43.2925,30.2621 L45.8885,30.8131 C46.2645,30.8931 46.5055,31.2631 46.4255,31.6391 C46.3455,32.0161 45.9755,32.2561 45.5985,32.1761 L43.0035,31.6251 L42.6045,31.5411 L42.4555,31.0271 L41.6195,28.1441 C41.4355,27.5081 41.8015,26.8441 42.4365,26.6591 C43.0725,26.4751 43.7365,26.8411 43.9215,27.4761 C43.9575,27.6031 43.9725,27.7361 43.9675,27.8611" id="Fill-63" fill="#594529"></path>
                <path d="M48.2169,28.197 L47.4149,30.129 L47.1769,30.703 L46.7009,30.606 L43.4159,29.938 C43.0889,29.871 42.8779,29.552 42.9449,29.225 C43.0109,28.899 43.3299,28.687 43.6569,28.754 L46.9419,29.423 L46.2289,29.9 L46.2049,27.808 C46.1979,27.23 46.6609,26.756 47.2389,26.75 C47.8159,26.743 48.2899,27.206 48.2969,27.784 C48.2989,27.928 48.2689,28.071 48.2169,28.197" id="Fill-65" fill="#231F1F"></path>
                <path d="M43.4472,28.7475 C43.6732,29.0185 43.7592,29.3965 43.7752,29.8275 C43.6222,29.9895 43.4132,30.0585 43.1192,29.9855 C42.6962,29.6045 42.5722,29.2735 42.7082,28.9865 C42.8792,28.8145 43.1302,28.7415 43.4472,28.7475" id="Fill-67" fill="#FFE1C7"></path>
                <path d="M46.3047,30.8613 C46.5307,31.1323 46.6167,31.5103 46.6327,31.9413 C46.4797,32.1033 46.2707,32.1723 45.9767,32.0993 C45.5537,31.7183 45.4297,31.3873 45.5657,31.1003 C45.7367,30.9283 45.9877,30.8553 46.3047,30.8613" id="Fill-69" fill="#FFE1C7"></path>
                <path d="M42.1763,24.0306 C42.4743,23.9796 44.1373,23.9236 43.8273,24.4616 C43.5343,24.9696 42.6483,24.3376 42.3523,24.9936 C42.2663,25.1856 42.2043,25.3876 42.2233,25.5716 C42.2473,25.8186 42.4733,26.0646 42.1723,26.2326 C41.9473,26.3576 41.7143,26.3696 41.5843,26.1806 C41.3793,25.8826 41.3703,25.4566 41.3593,25.1126 C41.3413,24.6026 41.6723,24.1176 42.1763,24.0306" id="Fill-71" fill="#896A45"></path>
                <path d="M46.1211,24.4676 C46.1861,23.9956 47.0061,23.8856 47.3411,24.0256 C47.7561,24.1996 48.3211,24.4276 48.3861,24.9036 C48.4321,25.2416 48.5171,26.1366 47.9771,25.7746 C47.5981,25.5216 47.8181,24.9236 47.4071,24.7206 C47.1791,24.6076 46.2401,24.9376 46.2081,24.5546 C45.9931,24.5546 46.1071,24.7716 46.0621,24.5096 C46.0271,24.3106 46.1791,24.1596 46.3821,24.1776" id="Fill-73" fill="#231F1F"></path>
                <path d="M50.5703,24.6313 C47.1873,22.4603 42.8133,22.4603 39.4293,24.6313 L38.3493,22.9473 C42.3903,20.3553 47.6103,20.3563 51.6503,22.9473 L50.5703,24.6313 Z" id="Fill-75" fill="#231F1F"></path>
                <path d="M50.5703,40.3687 C47.1873,42.5397 42.8133,42.5397 39.4293,40.3687 L38.3493,42.0527 C42.3903,44.6447 47.6103,44.6437 51.6503,42.0527 L50.5703,40.3687 Z" id="Fill-77" fill="#231F1F"></path>
                <path d="M44.9990008,15.1939 C52.0460008,15.1939 58.0970008,19.4119 60.7960008,25.4549 L65.5480008,23.3369 C62.0380008,15.4789 54.1610008,9.9999 44.9990008,9.9999 C35.8370008,9.9999 27.9600008,15.4789 24.4500008,23.3369 L29.2020008,25.4549 C31.9010008,19.4119 37.9520008,15.1939 44.9990008,15.1939" id="Fill-79" fill-opacity="0.5" fill="#FFB200"></path>
            </g>
        </g>
    </g>
</svg>

<svg width="90" height="65" viewBox="0 0 90 65" xmlns="http://www.w3.org/2000/svg"><title>Kentucky</title><g fill="none" fill-rule="evenodd"><path d="M80 65H10C4.477 65 0 60.523 0 55V10C0 4.477 4.477 0 10 0h70c5.523 0 10 4.477 10 10v45c0 5.523-4.477 10-10 10" fill="#00247D"/><path d="M58 32.5c0-7.18-5.82-13-13-13s-13 5.82-13 13 5.82 13 13 13 13-5.82 13-13" fill="#F1F2F2"/><path d="M45 20c-6.893 0-12.5 5.607-12.5 12.5S38.107 45 45 45s12.5-5.607 12.5-12.5S51.893 20 45 20m0 26c-7.444 0-13.5-6.056-13.5-13.5S37.556 19 45 19s13.5 6.056 13.5 13.5S52.444 46 45 46M66.5 33c-.219-.446-.653-1.637-1.125-1.417-.214.29-.35.483-.375 1.417h-1.5c-.028-.956-.163-1.114-.375-1.415-.469-.224-.91.961-1.125 1.415-1.045-2.917 2.857-3.932 3 0h-1.5c.142-3.708 3.858-3.215 3 0" fill="#FFB200"/><path d="M67.071 36.9c-.522-2.173-1.97-2.19-2.462-.434l-1.477-.261c.126-1.835-1.277-2.261-2.462-.434-.188-3.092 4.3-3.19 3.94.694l-1.478-.26c.986-3.698 5.155-2.241 3.94.695" fill="#FFB200"/><path d="M65.972 40.665c-.138-2.24-1.567-2.484-2.349-.855l-1.41-.513c.437-1.76-.843-2.47-2.349-.855.355-3.11 4.78-2.36 3.76 1.368l-1.41-.513c1.623-3.494 5.444-1.278 3.758 1.368" fill="#FFB200"/><path d="M64.236 44.183c.257-2.262-1.126-2.698-2.165-1.25l-1.3-.75c.737-1.659-.4-2.58-2.164-1.25.887-2.991 5.119-1.499 3.464 2l-1.3-.75c2.172-3.109 5.616-.348 3.465 2" fill="#FFB200"/><path d="M61.372 46.89c.135-.52.486-1.48.047-1.824-.024-.048-.086-.047-.11-.077-.053.003-.073-.028-.125-.014-.428-.05-.89.474-1.185.764l-1.149-.964c.227-.334.676-.91.544-1.298.006-.054-.028-.068-.034-.121-.034-.018-.043-.08-.094-.095-.409-.376-1.312.137-1.789.362 1.313-2.822 4.768-1.1 2.522 2.116l-1.149-.964c2.771-2.738 5.08.263 2.522 2.116" fill="#78AD12"/><path d="M58.664 49.562c.173-.377.668-1.266.431-1.645a.453.453 0 0 0-.08-.16c-.018-.054-.082-.066-.102-.103-.056-.008-.072-.046-.129-.042a.345.345 0 0 0-.138-.018c-.309-.103-.93.381-1.174.548l-.964-1.149c.211-.217.784-.747.742-1.06a.328.328 0 0 0 .006-.139c.014-.055-.02-.077-.019-.133-.033-.027-.033-.092-.083-.117-.356-.437-1.296-.12-1.837.03 1.807-2.57 4.886-.168 2.155 2.568l-.964-1.149c3.16-2.186 5.001 1.176 2.156 2.57" fill="#008542"/><path d="M55.817 52.236c1.229-1.661.536-2.972-1.25-2.165l-.75-1.3c1.467-1.068.943-2.434-1.25-2.164 2.306-2.187 5.173 1.268 2 3.464l-.75-1.3c3.471-1.623 5.014 2.515 2 3.465" fill="#008542"/><path d="M52.226 53.814c1.789-1.698.78-2.767-.855-2.349l-.513-1.41c1.609-.787 1.37-2.233-.855-2.349 2.63-1.74 4.875 2.146 1.368 3.76l-.513-1.41c3.733-1.006 4.483 3.348 1.368 3.758" fill="#008542"/><path d="M48.244 53.775c.424-.31 1.486-.92 1.199-1.36-.302-.162-.531-.27-1.462-.132l-.26-1.477c.924-.192 1.08-.36 1.326-.623.12-.504-1.09-.732-1.59-.87 2.698-1.537 4.364 2.148.524 2.97l-.26-1.477c3.644-.5 3.855 3.255.523 2.97" fill="#008542"/><path d="M23.5 33c.219-.446.653-1.637 1.125-1.417.214.29.35.483.375 1.417h1.5c.028-.956.163-1.114.375-1.415.469-.224.91.961 1.125 1.415 1.045-2.917-2.857-3.932-3 0h1.5c-.142-3.708-3.858-3.215-3 0" fill="#FFB200"/><path d="M22.929 36.9c.522-2.173 1.97-2.19 2.462-.434l1.477-.261c-.126-1.835 1.277-2.261 2.462-.434.188-3.092-4.3-3.19-3.94.694l1.478-.26c-.986-3.698-5.155-2.241-3.94.695" fill="#FFB200"/><path d="M24.028 40.665c.138-2.24 1.567-2.484 2.349-.855l1.41-.513c-.437-1.76.843-2.47 2.349-.855-.355-3.11-4.78-2.36-3.76 1.368l1.41-.513c-1.623-3.494-5.444-1.278-3.758 1.368" fill="#FFB200"/><path d="M25.764 44.183c-.257-2.262 1.126-2.698 2.165-1.25l1.3-.75c-.737-1.659.4-2.58 2.164-1.25-.887-2.991-5.119-1.499-3.464 2l1.3-.75c-2.172-3.109-5.616-.348-3.465 2" fill="#FFB200"/><path d="M28.628 46.89c-.135-.52-.486-1.48-.047-1.824.024-.048.086-.047.11-.077.053.003.073-.028.125-.014.428-.05.89.474 1.185.764l1.149-.964c-.227-.334-.676-.91-.544-1.298-.006-.054.028-.068.034-.121.034-.018.043-.08.094-.095.409-.376 1.312.137 1.789.362-1.313-2.822-4.768-1.1-2.522 2.116l1.149-.964c-2.771-2.738-5.08.263-2.522 2.116" fill="#78AD12"/><path d="M31.336 49.562c-.173-.377-.668-1.266-.431-1.645a.453.453 0 0 1 .08-.16c.018-.054.082-.066.102-.103.056-.008.072-.046.129-.042a.345.345 0 0 1 .138-.018c.309-.103.93.381 1.174.548l.964-1.149c-.211-.217-.784-.747-.742-1.06a.328.328 0 0 1-.006-.139c-.014-.055.02-.077.019-.133.033-.027.033-.092.083-.117.356-.437 1.296-.12 1.837.03-1.807-2.57-4.886-.168-2.155 2.568l.964-1.149c-3.16-2.186-5.001 1.176-2.156 2.57" fill="#008542"/><path d="M34.183 52.236c-1.229-1.661-.536-2.972 1.25-2.165l.75-1.3c-1.467-1.068-.943-2.434 1.25-2.164-2.306-2.187-5.173 1.268-2 3.464l.75-1.3c-3.471-1.623-5.014 2.515-2 3.465" fill="#008542"/><path d="M37.774 53.814c-1.789-1.698-.78-2.767.855-2.349l.513-1.41c-1.609-.787-1.37-2.233.855-2.349-2.63-1.74-4.875 2.146-1.368 3.76l.513-1.41c-3.733-1.006-4.483 3.348-1.368 3.758" fill="#008542"/><path d="M41.756 53.775c-.424-.31-1.486-.92-1.199-1.36.302-.162.531-.27 1.462-.132l.26-1.477c-.924-.192-1.08-.36-1.326-.623-.12-.504 1.09-.732 1.59-.87-2.698-1.537-4.364 2.148-.524 2.97l.26-1.477c-3.644-.5-3.855 3.255-.523 2.97M47.72 50.806a12.698 12.698 0 0 1-5.44 0l-.26 1.477c1.967.395 3.993.395 5.96 0l-.26-1.477z" fill="#008542"/><path d="M43.277 38.962s.928.293 1.361.88c-.4.305-1.632.148-2.846 0v-.88h1.485z" fill="#49361F"/><path d="M43.364 30.943s.755 2.868 1.045 3.859c.291.99-1.278 4.87-1.278 4.87l-.958-.438 1.191-8.291z" fill="#49361F"/><path d="M46.18 27.4h2.09v2.344c0 .701-.035 1.316.122 2 .14.608.32 1.242.23 1.873-.067.466-.525 6.327-.352 6.327h-1.394c-.058 0-.606-6.979-.58-7.52.047-1.034-.278-2.056-.215-3.084.04-.64.098-1.284.098-1.94" fill="#231F1F"/><path d="M46.723 38.962s-.928.293-1.361.88c.4.305 1.632.148 2.846 0v-.88h-1.485z" fill="#231F1F"/><path d="M46.868 39.673s-.87.524-1.278 1.213c.79.358 1.696.025 2.672-.715V39.3l-1.394.373z" fill="#231F1F"/><path d="M43.82 27.4h-2.09v2.344c0 .701.035 1.316-.122 2-.14.608-.32 1.242-.23 1.873.067.466.525 6.327.352 6.327h1.394c.058 0 .606-6.979.58-7.52-.047-1.034.278-2.056.215-3.084-.04-.64-.098-1.284-.098-1.94" fill="#594529"/><path d="M43.132 39.673s.87.524 1.278 1.213c-.79.358-1.696.025-2.672-.715V39.3l1.394.373z" fill="#594529"/><path d="M41.917 26.681l.033-.353c-.969-.485.1-2.623 1.069-2.138.422.202.718.462.684.876a.334.334 0 0 0 .105.281l.175.153a.106.106 0 0 1-.05.184l-.172.034-.06.228.097.382-.375.03.08.173-.697.87-.889-.72zM48.002 26.681l-.033-.353c.969-.485-.1-2.623-1.068-2.138-.422.202-.718.462-.684.876a.334.334 0 0 1-.106.281l-.174.153a.106.106 0 0 0 .05.184l.172.034.059.228-.097.382.375.03-.08.173.698.87.888-.72z" fill="#FFE1C7"/><path d="M43.968 27.861l-.129 3-.547-.599 2.596.551a.697.697 0 1 1-.29 1.363l-2.594-.55-.4-.085-.148-.514-.837-2.883a1.2 1.2 0 0 1 2.303-.668c.036.127.05.26.046.385" fill="#594529"/><path d="M48.217 28.197l-.802 1.932-.238.574-.476-.097-3.285-.668a.604.604 0 0 1 .24-1.184l3.286.669-.713.477-.024-2.092a1.045 1.045 0 1 1 2.012.389" fill="#231F1F"/><path d="M43.447 28.747c.226.271.312.65.328 1.08-.153.162-.362.231-.656.158-.423-.38-.547-.712-.41-.998.17-.172.421-.245.738-.24M46.305 30.861c.226.271.312.65.328 1.08-.153.162-.362.231-.656.158-.423-.38-.547-.712-.411-.999.17-.172.422-.245.739-.239" fill="#FFE1C7"/><path d="M42.176 24.03c.298-.05 1.961-.106 1.651.432-.293.508-1.179-.124-1.475.532-.086.192-.148.394-.129.578.024.247.25.493-.05.66-.226.126-.459.138-.589-.051-.205-.298-.214-.724-.225-1.068-.018-.51.313-.995.817-1.082" fill="#896A45"/><path d="M46.121 24.468c.065-.472.885-.582 1.22-.442.415.174.98.402 1.045.878.046.338.131 1.233-.409.87-.379-.252-.159-.85-.57-1.053-.228-.113-1.167.217-1.199-.166-.215 0-.1.217-.146-.045-.035-.2.117-.35.32-.332" fill="#231F1F"/><path d="M50.57 24.631a10.343 10.343 0 0 0-11.14 0l-1.08-1.684a12.35 12.35 0 0 1 13.3 0l-1.08 1.684zM50.57 40.369a10.343 10.343 0 0 1-11.14 0l-1.08 1.684a12.35 12.35 0 0 0 13.3 0l-1.08-1.684z" fill="#231F1F"/><path d="M44.999 15.194c7.047 0 13.098 4.218 15.797 10.26l4.752-2.117C62.038 15.479 54.161 10 44.999 10c-9.162 0-17.039 5.479-20.549 13.337l4.752 2.118c2.699-6.043 8.75-10.261 15.797-10.261" fill-opacity=".5" fill="#FFB200"/></g></svg>
